src/icons/skills/javascript.svg

<svg viewBox="0 0 256 256" fill="none" xmlns="http://www.w3.org/2000/svg">
<rect width="256" height="256" rx="60" fill="#F0DB4F"/>
<path d="M67.3117 213.932L86.9027 202.076C90.6821 208.777 94.1202 214.447 102.367 214.447C110.272 214.447 115.256 211.355 115.256 199.327V117.529H139.314V199.667C139.314 224.584 124.708 235.926 103.398 235.926C84.1533 235.926 72.9819 225.959 67.3113 213.93" fill="#323330"/>
<path d="M152.381 211.354L171.969 200.013C177.126 208.434 183.828 214.62 195.684 214.62C205.653 214.62 212.009 209.636 212.009 202.762C212.009 194.514 205.479 191.592 194.481 186.782L188.468 184.203C171.111 176.815 159.597 167.535 159.597 147.945C159.597 129.901 173.345 116.153 194.826 116.153C210.12 116.153 221.118 121.481 229.022 135.4L210.291 147.429C206.166 140.04 201.7 137.119 194.826 137.119C187.78 137.119 183.312 141.587 183.312 147.429C183.312 154.646 187.78 157.568 198.09 162.037L204.104 164.614C224.553 173.379 236.067 182.313 236.067 202.418C236.067 224.072 219.055 235.928 196.2 235.928C173.861 235.928 159.426 225.274 152.381 211.354" fill="#323330"/>
</svg>

<svg viewBox="0 0 256 256" fill="none" xmlns="http://www.w3.org/2000/svg">
<rect width="256" height="256" rx="60" fill="#F0DB4F"/>
<path d="M67.3 213.9l19.6-11.8c3.8 6.7 7.2 12.3 15.5 12.3 7.9 0 12.9-3 12.9-15.1V117.5h24v82.2c0 24.9-14.6 36.2-35.9 36.2-19.2 0-30.4-9.9-36.1-22m85.1-2.5L172 200c5.1 8.4 11.8 14.6 23.7 14.6 10 0 16.3-5 16.3-11.8 0-8.3-6.5-11.2-17.5-16l-6-2.6c-17.4-7.4-28.9-16.7-28.9-36.3 0-18 13.7-31.7 35.2-31.7 15.3 0 26.3 5.3 34.2 19.2l-18.7 12c-4.1-7.4-8.6-10.3-15.5-10.3-7 0-11.5 4.5-11.5 10.3 0 7.2 4.5 10.2 14.8 14.6l6 2.6c20.5 8.8 32 17.7 32 37.8 0 21.7-17 33.5-39.9 33.5-22.3 0-36.8-10.6-43.8-24.5" fill="#323330"/>
</svg>
